X:1
T:Title
%%score { ( 1 4 ) | ( 2 3 ) }
L:1/8
M:4/4
K:G
V:1 treble nm="Grand Piano"
V:4 treble 
V:2 bass 
V:3 bass 
V:1
 z4 z2[Q:1/4=100] D>D | G2 D>G A2 D>A | B2 B4 [Gd]2 | [CGc]2 [DGB]>[DFA] [DG]2 [CDF]>[B,^CG] | %4
 [DFA]6 D>D | [DFA]2 D>[DFA] [DGB]2 D>[GB] | [Fc]2 [Fc]4 [FA]2 | B2 d>B A>F [A,^CG]>[G,CE] | %8
 D6 D>E | F2 G>G A2 [Fc]>F | A2 G4 F>G | [FA]2 [GB]>[GB] [Ac]2 [Fe]>[Fe] | e2 d4 d2 | %13
 d2 B>G d2 B>G | [Ed]2 [Ec]4 [Ge]2 | [Gd]2 B>G D2 [DGB]>[DGB] | [CFA]4 [B,DG]4 | z2 d4 z2 | %18
 z2 d4 z2 | z2 [GB]4 z2 |[M:3/4] z2 B4 |[M:1/4] [=FB]2 |[M:4/4] z4 d2 z2 | %23
 [Ee]2 [Ge]2 [Ge]2 [Ge]>[Ge] | [Gd]2 B>G d2 B>G |[M:3/4] [CFA]4 [G,B,DG]2 |] %26
V:2
 z4 z2 D,>D, | [G,B,D]2 [G,B,]>[G,B,D] [F,CD]2 [F,C]>[F,D] | [G,DG]2 [G,DG]4[K:bass] [=F,B,]2 | %3
 E,2 D,>C, B,,2 A,,>G,, | D,6 D,>D, | D,2 D,>D, D,2 D,>[D,D] | [D,D]2 [D,D]4 [D,D]2 | %7
 z4 ^F2[K:bass] z2 | [D,F,]6 [D,F,]>[D,G,D] | [D,A,D]2 [D,B,D]>[D,B,D] [D,CD]2 [D,A,]>[D,CD] | %10
 [G,CD]2 [G,B,D]4 [D,A,D]>[D,B,D] | [D,D]2 [D,D]>[D,D] [D,D]2 [D,C]>[D,C] | [G,CG]2 [G,B,G]4 D2 | %13
 D2 B,>[K:bass]G, D2 B,>G, | [C,G,]2 [C,G,]4 [C,_B,]2 | [D,B,]2 B,>G, D,2 D,>D, | D,4 G,4 | %17
 D,2 [D,A,]>D, D,2 D,2 | G,2[K:treble] [G,B,G]>[G,C] [G,D]>c B>A | G2[K:bass] [E,G,]>E, E,2 E,2 | %20
[M:3/4] E,2 [E,G,E]>[E,A,] [E,B,]2 |[M:1/4] [D,G,]2 |[M:4/4] [C,G,]2 [_B,,G,]2 [=B,,G,]2 [B,,A,]2 | %23
 [C,G,]2 [C,C]2 [^C,_B,]2 [C,B,]>[C,B,] | [D,B,]2 B,>G, D2 B,>G, |[M:3/4] D,4 G,,2 |] %26
V:3
 x8 | x8 | x6[K:bass] x2 | x8 | x8 | x8 | x8 | [G,DG]2 [^G,B,=F]>[G,DF] A,->[A,D][K:bass] A,,>A,, | %8
 x8 | x8 | x8 | x8 | x8 | x7/2[K:bass] x9/2 | x8 | x8 | x8 | x8 | x2[K:treble] x6 | x2[K:bass] x6 | %20
[M:3/4] x6 |[M:1/4] x2 |[M:4/4] x8 | x8 | x8 |[M:3/4] x6 |] %26
V:4
 x8 | x8 | x8 | x8 | x8 | x8 | x8 | x8 | x8 | x8 | x8 | x8 | x8 | x8 | x8 | x8 | x8 | %17
 [DF]2 F>[B,G] [CA]2 [Ece]2 | [DBd]2 z z/ A/ B>e d>c | B2 z z/ A,/ B,2 [CAc]2 | %20
[M:3/4] [B,GB]2 z z/ F/ G2 |[M:1/4] x2 |[M:4/4] [Ec]2 [E^c]2 DG [F^d]2 | x8 | x8 |[M:3/4] x6 |] %26

